communes/6616.svg

<?xml version="1.0" encoding="UTF-8" standalone="no"?>
<svg
   xmlns:i="http://ns.adobe.com/AdobeIllustrator/10.0/"
   xmlns:dc="http://purl.org/dc/elements/1.1/"
   xmlns:cc="http://web.resource.org/cc/"
   xmlns:rdf="http://www.w3.org/1999/02/22-rdf-syntax-ns#"
   xmlns:svg="http://www.w3.org/2000/svg"
   xmlns="http://www.w3.org/2000/svg"
   xmlns:xlink="http://www.w3.org/1999/xlink"
   xmlns:sodipodi="http://sodipodi.sourceforge.net/DTD/sodipodi-0.dtd"
   xmlns:inkscape="http://www.inkscape.org/namespaces/inkscape"
   height="763"
   width="603"
   version="1.0"
   id="svg20"
   sodipodi:version="0.32"
   inkscape:version="0.44"
   sodipodi:docname="CollongeBellerive-coat_of_arms.svg"
   sodipodi:docbase="C:\Documents and Settings\Steve\Bureau\Blason Villages Suisse pour Wikipédia (par Delta-9)\GE">
  <metadata
     id="metadata31">
    <rdf:RDF>
      <cc:Work
         rdf:about="">
        <dc:format>image/svg+xml</dc:format>
        <dc:type
           rdf:resource="http://purl.org/dc/dcmitype/StillImage" />
        <dc:date>07-AUG-2006</dc:date>
        <dc:creator>
          <cc:Agent>
            <dc:title>Jérôme BLUM (wagner51)</dc:title>
          </cc:Agent>
        </dc:creator>
        <cc:license
           rdf:resource="http://creativecommons.org/licenses/GPL/2.0/" />
        <dc:coverage />
        <dc:description>Gabarit pour le Projet:Blasons de WIkipédia</dc:description>
        <dc:subject>
          <rdf:Bag>
            <rdf:li>blason suisse modèle gabarit projet blasons</rdf:li>
          </rdf:Bag>
        </dc:subject>
        <dc:language>fr</dc:language>
        <dc:title>Gabrit d'un blason suisse</dc:title>
      </cc:Work>
      <cc:License
         rdf:about="http://creativecommons.org/licenses/GPL/2.0/">
        <cc:permits
           rdf:resource="http://web.resource.org/cc/Reproduction" />
        <cc:permits
           rdf:resource="http://web.resource.org/cc/Distribution" />
        <cc:requires
           rdf:resource="http://web.resource.org/cc/Notice" />
        <cc:permits
           rdf:resource="http://web.resource.org/cc/DerivativeWorks" />
        <cc:requires
           rdf:resource="http://web.resource.org/cc/ShareAlike" />
        <cc:requires
           rdf:resource="http://web.resource.org/cc/SourceCode" />
      </cc:License>
    </rdf:RDF>
  </metadata>
  <defs
     id="defs29"><linearGradient
   id="linearGradient2893">
  <stop
     style="stop-color:#ffffff;stop-opacity:0.3137255;"
     offset="0"
     id="stop2895" />
  <stop
     id="stop2897"
     offset="0.19"
     style="stop-color:#ffffff;stop-opacity:0.25098041;" />
  <stop
     style="stop-color:#6b6b6b;stop-opacity:0.1254902;"
     offset="0.60000002"
     id="stop2901" />
  <stop
     style="stop-color:#000000;stop-opacity:0.1254902;"
     offset="1"
     id="stop2899" />
</linearGradient>
<linearGradient
   id="linearGradient2955">
  <stop
     style="stop-color:white;stop-opacity:0;"
     offset="0"
     id="stop2965" />
  <stop
     style="stop-color:black;stop-opacity:0.64583331;"
     offset="1"
     id="stop2959" />
</linearGradient>
<radialGradient
   inkscape:collect="always"
   xlink:href="#linearGradient2893"
   id="radialGradient3236"
   gradientUnits="userSpaceOnUse"
   gradientTransform="matrix(1.215027,1.531577e-24,1.464684e-23,1.266667,-839.1924,-490.4894)"
   cx="858.04236"
   cy="579.93323"
   fx="858.04236"
   fy="579.93323"
   r="300" />

			<foreignObject
   requiredExtensions="http://ns.adobe.com/AdobeIllustrator/10.0/"
   x="0"
   y="0"
   width="1"
   height="1"
   id="foreignObject1956">
				<i:pgfRef
   xlink:href="#adobe_illustrator_pgf">
				</i:pgfRef>

			</foreignObject>

			
		
				
			
					
						 
					
						
					
						
					
						
				</defs>
  <sodipodi:namedview
     inkscape:window-height="691"
     inkscape:window-width="939"
     inkscape:pageshadow="2"
     inkscape:pageopacity="0.0"
     guidetolerance="10.0"
     gridtolerance="10.0"
     objecttolerance="10.0"
     borderopacity="1.0"
     bordercolor="#666666"
     pagecolor="#ffffff"
     id="base"
     inkscape:zoom="0.55264442"
     inkscape:cx="339.20403"
     inkscape:cy="398.21553"
     inkscape:window-x="73"
     inkscape:window-y="143"
     inkscape:current-layer="layer2"
     showgrid="false"
     showguides="true"
     inkscape:guide-bbox="true" />
  <desc
     id="desc22">Coat of Arms of Canton of Freiburg (Fribourg)</desc>
  <g
     inkscape:groupmode="layer"
     id="layer1"
     inkscape:label="Fond écu"
     style="opacity:1"
     sodipodi:insensitive="true">
    <path
       id="path1899"
       d="M 1.5,1.49998 L 1.5,460.3679 C 1.5,626.6785 135.81456,761.5 301.49999,761.5 C 467.18543,761.5 601.5,626.6785 601.5,460.3679 L 601.5,1.49998 L 1.5,1.49998 z "
       style="fill:#e20909;fill-opacity:1" />
  </g>
  <g
     inkscape:groupmode="layer"
     id="layer2"
     inkscape:label="Meubles"
     style="opacity:1"
     sodipodi:insensitive="true">
    <path
       style="fill:#fcef3c;stroke:black;stroke-width:2.75;stroke-linecap:round;stroke-linejoin:round;stroke-miterlimit:4;stroke-dasharray:none"
       d="M 1.5,1.5 L 1.5,125.625 L 519.15625,667.59375 C 560.04952,624.33191 588.27407,568.88951 597.875,507.25 L 114.8125,1.5 L 1.5,1.5 z "
       id="rect1961" />
    <path
       style="fill:#5ab532;stroke:black;stroke-width:2.75;stroke-linecap:round;stroke-linejoin:round;stroke-miterlimit:4;stroke-dasharray:none"
       i:knockout="Off"
       d="M 513.14037,520.47929 C 507.05811,515.4059 491.36912,504.69246 487.4229,497.34486 L 487.42833,497.33917 C 487.45911,497.33917 487.48898,497.34202 487.51974,497.34202 C 506.81736,497.34107 522.46108,480.96296 522.46108,460.76037 C 522.46108,440.5559 506.81827,424.17873 487.51974,424.17873 C 476.2929,424.17873 466.30965,429.7297 459.91785,438.34517 C 454.55695,425.35089 442.21049,416.25498 427.82937,416.25404 C 408.53266,416.25404 392.88893,432.63215 392.88802,452.83569 C 392.88802,469.00344 402.91018,482.7122 416.80165,487.54679 C 409.12821,494.25762 404.2434,504.34659 404.2434,515.63237 C 404.24249,535.8359 419.88622,552.21402 439.18474,552.21402 C 458.48146,552.21402 474.12518,535.8359 474.12608,515.63237 C 474.12518,514.17972 474.03558,512.7536 473.8799,511.34548 L 474.01658,511.20429 C 475.23664,514.38061 478.12482,520.07466 484.14011,524.07348 C 492.90056,529.8983 508.64294,537.70549 509.82681,545.01708 C 511.01068,552.32868 505.80274,561.62262 505.80274,561.62262 C 505.80274,561.62262 516.45667,561.99312 522.25654,550.46856 C 528.0546,538.94399 520.12322,526.30411 513.14037,520.47929 z "
       id="path1963" />
    <path
       style="fill:#5ab532;stroke:black;stroke-width:2.75;stroke-linecap:round;stroke-linejoin:round;stroke-miterlimit:4;stroke-dasharray:none"
       i:knockout="Off"
       d="M 355.65316,355.59891 C 349.5709,350.52552 333.88191,339.81208 329.93568,332.46449 L 329.9411,332.45881 C 329.97187,332.45881 330.00175,332.46164 330.03252,332.46164 C 349.33013,332.4607 364.97387,316.08259 364.97387,295.87999 C 364.97387,275.67552 349.33103,259.29836 330.03252,259.29836 C 318.80568,259.29836 308.82243,264.84933 302.43062,273.4648 C 297.06973,260.47052 284.72326,251.37461 270.34215,251.37367 C 251.04544,251.37367 235.40171,267.75178 235.4008,287.95531 C 235.4008,304.12307 245.42297,317.83182 259.31443,322.66642 C 251.641,329.37724 246.75617,339.46622 246.75617,350.752 C 246.75527,370.95553 262.399,387.33364 281.69752,387.33364 C 300.99423,387.33364 316.63797,370.95553 316.63887,350.752 C 316.63797,349.29935 316.54835,347.87322 316.39269,346.46511 L 316.52934,346.32392 C 317.74943,349.50024 320.63759,355.19428 326.65288,359.19312 C 335.41333,365.01793 351.15572,372.82512 352.33959,380.13671 C 353.52346,387.4483 348.31552,396.74225 348.31552,396.74225 C 348.31552,396.74225 358.96944,397.11276 364.76932,385.58819 C 370.56738,374.06362 362.63599,361.42374 355.65316,355.59891 z "
       id="path1965" />
    <path
       style="fill:#5ab532;stroke:black;stroke-width:2.75;stroke-linecap:round;stroke-linejoin:round;stroke-miterlimit:4;stroke-dasharray:none"
       i:knockout="Off"
       d="M 198.16594,190.71854 C 192.08367,185.64515 176.39469,174.93171 172.44845,167.58412 L 172.45389,167.57844 C 172.48466,167.57844 172.51452,167.58127 172.5453,167.58127 C 191.84292,167.58033 207.48665,151.20221 207.48665,130.99962 C 207.48665,110.79515 191.84382,94.417977 172.5453,94.417977 C 161.31844,94.417977 151.33521,99.96895 144.9434,108.58442 C 139.58249,95.590144 127.23605,86.494242 112.85492,86.493295 C 93.558216,86.493295 77.914485,102.87141 77.91358,123.07494 C 77.91358,139.2427 87.93574,152.95145 101.8272,157.78605 C 94.153771,164.49687 89.268952,174.58585 89.268952,185.87162 C 89.268047,206.07516 104.91177,222.45327 124.2103,222.45327 C 143.50701,222.45327 159.15074,206.07516 159.15164,185.87162 C 159.15074,184.41898 159.06114,182.99285 158.90546,181.58474 L 159.04213,181.44354 C 160.2622,184.61986 163.15038,190.31391 169.16566,194.31275 C 177.92611,200.13756 193.6685,207.94475 194.85237,215.25633 C 196.03624,222.56793 190.8283,231.86187 190.8283,231.86187 C 190.8283,231.86187 201.48222,232.23239 207.28209,220.70782 C 213.08015,209.18325 205.14877,196.54336 198.16594,190.71854 z "
       id="path1967" />
  </g>
  <g
     inkscape:groupmode="layer"
     id="layer3"
     inkscape:label="Reflet final"
     style="display:inline"
     sodipodi:insensitive="true">
    <path
       style="fill:url(#radialGradient3236);fill-opacity:1"
       d="M 1.5,1.5 L 1.5,460.3679 C 1.5,626.67854 135.81454,761.5 301.49993,761.5 C 467.1854,761.5 601.5,626.67854 601.5,460.3679 L 601.5,1.5 L 1.5,1.5 z "
       id="path2346" />
  </g>
  <g
     inkscape:groupmode="layer"
     id="layer4"
     inkscape:label="Contour final"
     style="display:inline"
     sodipodi:insensitive="true">
    <path
       style="fill:none;fill-opacity:1;stroke:#000000;stroke-width:3;stroke-miterlimit:4;stroke-dasharray:none;stroke-opacity:1"
       d="M 1.5,1.5 L 1.5,460.36794 C 1.5,626.67854 135.81454,761.5 301.49993,761.5 C 467.1854,761.5 601.5,626.67854 601.5,460.36794 L 601.5,1.5 L 1.5,1.5 z "
       id="path3239" />
  </g>
</svg>

<?xml version="1.0" encoding="UTF-8"?>
<svg version="1.0" viewBox="0 0 603 763" xmlns="http://www.w3.org/2000/svg" xmlns:cc="http://web.resource.org/cc/" xmlns:dc="http://purl.org/dc/elements/1.1/" xmlns:rdf="http://www.w3.org/1999/02/22-rdf-syntax-ns#" xmlns:xlink="http://www.w3.org/1999/xlink">
<metadata>
<rdf:RDF>
<cc:Work rdf:about="">
<dc:format>image/svg+xml</dc:format>
<dc:type rdf:resource="http://purl.org/dc/dcmitype/StillImage"/>
<dc:date>07-AUG-2006</dc:date>
<dc:creator>
<cc:Agent>
<dc:title>Jérôme BLUM (wagner51)</dc:title>
</cc:Agent>
</dc:creator>
<cc:license rdf:resource="http://creativecommons.org/licenses/GPL/2.0/"/>
<dc:coverage/>
<dc:description>Gabarit pour le Projet:Blasons de WIkipédia</dc:description>
<dc:subject>
<rdf:Bag>
<rdf:li>blason suisse modèle gabarit projet blasons</rdf:li>
</rdf:Bag>
</dc:subject>
<dc:language>fr</dc:language>
<dc:title>Gabrit d'un blason suisse</dc:title>
</cc:Work>
<cc:License rdf:about="http://creativecommons.org/licenses/GPL/2.0/">
<cc:permits rdf:resource="http://web.resource.org/cc/Reproduction"/>
<cc:permits rdf:resource="http://web.resource.org/cc/Distribution"/>
<cc:requires rdf:resource="http://web.resource.org/cc/Notice"/>
<cc:permits rdf:resource="http://web.resource.org/cc/DerivativeWorks"/>
<cc:requires rdf:resource="http://web.resource.org/cc/ShareAlike"/>
<cc:requires rdf:resource="http://web.resource.org/cc/SourceCode"/>
</cc:License>
</rdf:RDF>
</metadata>
<defs>
<radialGradient id="a" cx="858.04" cy="579.93" r="300" gradientTransform="matrix(1.215 1.5316e-24 1.4647e-23 1.2667 -839.19 -490.49)" gradientUnits="userSpaceOnUse">
<stop stop-color="#fff" stop-opacity=".31373" offset="0"/>
<stop stop-color="#fff" stop-opacity=".25098" offset=".19"/>
<stop stop-color="#6b6b6b" stop-opacity=".12549" offset=".6"/>
<stop stop-opacity=".12549" offset="1"/>
</radialGradient>
</defs>
<desc>Coat of Arms of Canton of Freiburg (Fribourg)</desc>
<g>
<path d="m1.5 1.5v458.87c0 166.31 134.31 301.13 300 301.13 165.69 0 300-134.82 300-301.13v-458.87h-600z" fill="#e20909"/>
<path d="m1.5 1.5v124.12l517.66 541.97c40.893-43.262 69.118-98.704 78.719-160.34l-483.06-505.75h-113.31z" fill="#fcef3c" stroke="#000" stroke-linecap="round" stroke-linejoin="round" stroke-width="2.75"/>
<path d="m513.14 520.48c-6.0823-5.0734-21.771-15.787-25.717-23.134l0.00543-0.00569c0.03078 0 0.06065 0.00285 0.09141 0.00285 19.298-9.5e-4 34.941-16.379 34.941-36.582 0-20.204-15.643-36.582-34.941-36.582-11.227 0-21.21 5.551-27.602 14.166-5.3609-12.994-17.707-22.09-32.088-22.091-19.297 0-34.94 16.378-34.941 36.582 0 16.168 10.022 29.877 23.914 34.711-7.6734 6.7108-12.558 16.8-12.558 28.086-9.1e-4 20.204 15.643 36.582 34.941 36.582 19.297 0 34.94-16.378 34.941-36.582-9e-4 -1.4526-0.0905-2.8788-0.24618-4.2869l0.13668-0.14119c1.2201 3.1763 4.1082 8.8704 10.124 12.869 8.7604 5.8248 24.503 13.632 25.687 20.944 1.1839 7.3116-4.0241 16.606-4.0241 16.606s10.654 0.3705 16.454-11.154c5.7981-11.525-2.1333-24.164-9.1162-29.989z" fill="#5ab532" stroke="#000" stroke-linecap="round" stroke-linejoin="round" stroke-width="2.75"/>
<path d="m355.65 355.6c-6.0823-5.0734-21.771-15.787-25.717-23.134l0.00542-0.00568c0.03077 0 0.06065 0.00283 0.09142 0.00283 19.298-9.4e-4 34.941-16.379 34.941-36.582 0-20.204-15.643-36.582-34.941-36.582-11.227 0-21.21 5.551-27.602 14.166-5.3609-12.994-17.707-22.09-32.088-22.091-19.297 0-34.94 16.378-34.941 36.582 0 16.168 10.022 29.877 23.914 34.711-7.6734 6.7108-12.558 16.8-12.558 28.086-9e-4 20.204 15.643 36.582 34.941 36.582 19.297 0 34.94-16.378 34.941-36.582-9e-4 -1.4526-0.09052-2.8788-0.24618-4.2869l0.13665-0.14119c1.2201 3.1763 4.1082 8.8704 10.124 12.869 8.7604 5.8248 24.503 13.632 25.687 20.944s-4.0241 16.606-4.0241 16.606 10.654 0.37051 16.454-11.154c5.7981-11.525-2.1333-24.164-9.1162-29.989z" fill="#5ab532" stroke="#000" stroke-linecap="round" stroke-linejoin="round" stroke-width="2.75"/>
<path d="m198.17 190.72c-6.0823-5.0734-21.771-15.787-25.717-23.134l0.00544-0.00568c0.03077 0 0.06063 0.00283 0.09141 0.00283 19.298-9.4e-4 34.941-16.379 34.941-36.582 0-20.204-15.643-36.582-34.941-36.582-11.227 0-21.21 5.551-27.602 14.166-5.3609-12.994-17.707-22.09-32.088-22.091-19.297 0-34.94 16.378-34.941 36.582 0 16.168 10.022 29.877 23.914 34.711-7.6734 6.7108-12.558 16.8-12.558 28.086-9.05e-4 20.204 15.643 36.582 34.941 36.582 19.297 0 34.94-16.378 34.941-36.582-9e-4 -1.4526-0.0905-2.8788-0.24618-4.2869l0.13667-0.1412c1.2201 3.1763 4.1082 8.8704 10.124 12.869 8.7604 5.8248 24.503 13.632 25.687 20.944 1.1839 7.3116-4.0241 16.606-4.0241 16.606s10.654 0.37052 16.454-11.154c5.7981-11.525-2.1333-24.164-9.1162-29.989z" fill="#5ab532" stroke="#000" stroke-linecap="round" stroke-linejoin="round" stroke-width="2.75"/>
</g>
<g>
<path d="m1.5 1.5v458.87c0 166.31 134.31 301.13 300 301.13 165.69 0 300-134.82 300-301.13v-458.87h-600z" fill="url(#a)"/>
<path d="m1.5 1.5v458.87c0 166.31 134.31 301.13 300 301.13 165.69 0 300-134.82 300-301.13v-458.87h-600z" fill="none" stroke="#000" stroke-width="3"/>
</g>
</svg>
